X: 1
T: the Spotted Pony
M: C|
S: Roaring Jelly collection
Z: Transcribed to abc by Mary Lou Knack
R: reel
K: D
|:\
"D"D2D2 "A"E2E2 | "D"FDF2 "G"G4 |\
[1,3 "D"ABde fede | f2a2 "A"e2 FE :|\
[2,4 "D"ABAB dBAG | "D"F2"A"E2 "D"D4 :|
|:\
"D"f2a2 f4 | "G"efed BcdB |\
[1,3 "D"ABde fede | f2a2 "A"e4 :|\
[2,4 "D"ABAB dBAG | "A"F2E2 "D"D4 :|
